flaticon/gastronomy/thermos.svg

<svg xmlns="http://www.w3.org/2000/svg" width="32" height="32" viewBox="0 0 24 24">
    <path d="M 18.097656 7.714844 C 18.097656 7.660156 18.089844 7.609375 18.074219 7.5625 C 18.074219 7.5625 18.074219 7.5625 18.074219 7.558594 L 16.808594 4.394531 C 16.546875 3.742188 15.945312 3.308594 15.253906 3.25 L 15.253906 1.308594 C 15.253906 0.585938 14.667969 0 13.945312 0 L 10.054688 0 C 9.332031 0 8.746094 0.585938 8.746094 1.308594 L 8.746094 3.25 C 8.054688 3.308594 7.453125 3.742188 7.191406 4.394531 L 5.925781 7.558594 C 5.925781 7.5625 5.925781 7.5625 5.925781 7.5625 C 5.910156 7.609375 5.902344 7.660156 5.902344 7.714844 C 5.902344 7.722656 5.902344 7.730469 5.902344 7.742188 C 5.902344 7.75 5.902344 7.757812 5.902344 7.765625 L 7.78125 21.984375 C 7.886719 23.132812 8.839844 24 9.992188 24 L 14.007812 24 C 15.160156 24 16.113281 23.132812 16.21875 22 L 18.097656 7.765625 C 18.097656 7.757812 18.097656 7.75 18.097656 7.742188 C 18.097656 7.730469 18.097656 7.722656 18.097656 7.714844 Z M 9.558594 1.308594 C 9.558594 1.035156 9.78125 0.8125 10.054688 0.8125 L 13.945312 0.8125 C 14.21875 0.8125 14.441406 1.035156 14.441406 1.308594 L 14.441406 3.238281 L 9.558594 3.238281 Z M 7.949219 4.699219 C 8.105469 4.304688 8.480469 4.050781 8.90625 4.050781 L 15.09375 4.050781 C 15.519531 4.050781 15.894531 4.304688 16.050781 4.699219 L 17.140625 7.414062 C 16.964844 7.457031 16.792969 7.492188 16.617188 7.53125 C 16.429688 7.566406 16.238281 7.609375 16.046875 7.640625 C 15.785156 7.6875 15.519531 7.726562 15.253906 7.765625 C 15.070312 7.792969 14.886719 7.820312 14.703125 7.84375 C 14.417969 7.875 14.128906 7.898438 13.84375 7.921875 C 13.679688 7.933594 13.515625 7.953125 13.351562 7.960938 C 12.960938 7.984375 12.570312 7.996094 12.179688 8 C 12.0625 8 11.941406 8 11.824219 8 C 11.433594 7.996094 11.042969 7.984375 10.652344 7.960938 C 10.480469 7.953125 10.308594 7.933594 10.136719 7.917969 C 9.859375 7.898438 9.578125 7.875 9.300781 7.84375 C 9.113281 7.820312 8.921875 7.789062 8.730469 7.761719 C 8.472656 7.726562 8.214844 7.6875 7.957031 7.644531 C 7.761719 7.609375 7.570312 7.566406 7.378906 7.527344 C 7.207031 7.492188 7.035156 7.457031 6.863281 7.414062 Z M 15.410156 21.910156 C 15.34375 22.636719 14.738281 23.1875 14.007812 23.1875 L 9.992188 23.1875 C 9.261719 23.1875 8.65625 22.636719 8.589844 21.894531 L 6.785156 8.242188 C 6.949219 8.277344 7.113281 8.304688 7.273438 8.335938 C 7.460938 8.375 7.648438 8.414062 7.839844 8.445312 C 8.121094 8.496094 8.410156 8.539062 8.695312 8.578125 C 8.867188 8.601562 9.042969 8.628906 9.214844 8.648438 C 9.539062 8.6875 9.867188 8.714844 10.191406 8.738281 C 10.328125 8.75 10.464844 8.765625 10.601562 8.773438 C 11.53125 8.828125 12.46875 8.828125 13.398438 8.773438 C 13.535156 8.765625 13.667969 8.75 13.800781 8.742188 C 14.128906 8.714844 14.457031 8.6875 14.785156 8.648438 C 14.957031 8.628906 15.128906 8.601562 15.300781 8.578125 C 15.589844 8.539062 15.875 8.496094 16.164062 8.445312 C 16.351562 8.414062 16.535156 8.375 16.722656 8.335938 C 16.886719 8.304688 17.050781 8.277344 17.214844 8.242188 Z M 15.410156 21.910156"/>
    <path d="M 10.941406 21.558594 C 10.226562 21.515625 10.109375 20.777344 10.097656 20.691406 L 9.554688 16.625 C 9.527344 16.402344 9.324219 16.246094 9.097656 16.273438 C 8.875 16.304688 8.71875 16.507812 8.75 16.730469 L 9.289062 20.792969 C 9.351562 21.308594 9.765625 22.300781 10.890625 22.371094 C 10.898438 22.371094 10.90625 22.371094 10.914062 22.371094 C 11.128906 22.371094 11.308594 22.207031 11.320312 21.992188 C 11.335938 21.769531 11.164062 21.574219 10.941406 21.558594 Z M 10.941406 21.558594"/>
</svg>

<svg xmlns="http://www.w3.org/2000/svg" width="32" height="32" viewBox="0 0 24 24">
    <path d="M18.098 7.715a.479.479 0 0 0-.024-.152v-.004L16.81 4.395a1.833 1.833 0 0 0-1.555-1.145V1.309C15.254.586 14.668 0 13.945 0h-3.89c-.723 0-1.309.586-1.309 1.309V3.25a1.833 1.833 0 0 0-1.555 1.145L5.926 7.559v.003a.479.479 0 0 0-.024.153V7.766l1.88 14.218A2.211 2.211 0 0 0 9.991 24h4.016a2.21 2.21 0 0 0 2.21-2l1.88-14.234v-.024-.027zm-8.54-6.406c0-.274.223-.496.497-.496h3.89c.274 0 .496.222.496.496v1.93H9.56zM7.95 4.699c.156-.394.531-.648.957-.648h6.188c.426 0 .8.254.957.648l1.09 2.715c-.176.043-.348.078-.524.117-.187.035-.379.078-.57.11-.262.046-.527.086-.793.125-.184.027-.367.054-.55.078-.286.031-.575.054-.86.078-.164.012-.328.031-.492.039-.391.023-.782.035-1.172.039h-.356a23.48 23.48 0 0 1-1.172-.04c-.172-.007-.343-.026-.515-.042-.278-.02-.559-.043-.836-.074-.188-.024-.38-.055-.57-.082a26.41 26.41 0 0 1-.774-.117c-.195-.036-.387-.079-.578-.118-.172-.035-.344-.07-.516-.113zM15.41 21.91a1.403 1.403 0 0 1-1.402 1.277H9.992c-.73 0-1.336-.55-1.402-1.292L6.785 8.242c.164.035.328.063.488.094.188.039.375.078.567.11.281.05.57.093.855.132.172.024.348.05.52.07.324.04.652.067.976.09.137.012.274.028.41.035.93.055 1.868.055 2.797 0 .137-.007.27-.023.403-.03.328-.028.656-.056.984-.095.172-.02.344-.046.516-.07.289-.039.574-.082.863-.133.188-.03.371-.07.559-.11.164-.03.328-.058.492-.093zm0 0"/>
    <path d="M10.941 21.559c-.714-.043-.832-.782-.843-.868l-.543-4.066a.407.407 0 1 0-.805.105l.54 4.063c.062.516.476 1.508 1.6 1.578h.024a.403.403 0 0 0 .406-.379.41.41 0 0 0-.379-.433zm0 0"/>
</svg>
